!!!COM: Palestrina, Giovanni Perluigi da
!!!OPR: Missa Sacerdotes Domini
!!!OMD: Credo
!!!OTL: Et unam sanctam
**kern	**kern	**kern	**kern	**kern	**kern
*Ibass	*Ibarit	*Itenor	*Itenor	*Icalto	*Icant
!Bassus	!Baritone	!Tenor 2	!Tenor 1	!Altus	!Cantus
*clefF4	*clefF4	*clefGv2	*clefGv2	*clefG2	*clefG2
*k[]	*k[]	*k[]	*k[]	*k[]	*k[]
*G:mix	*G:mix	*G:mix	*G:mix	*G:mix	*G:mix
*M4/2	*M4/2	*M4/2	*M4/2	*M4/2	*M4/2
=186	=186	=186	=186	=186	=186
1G	2r	0r	0r	1d	1b
.	2G	.	.	.	.
2G	2B	.	.	2g	2dd
2G	2B	.	.	2g	2dd
=187	=187	=187	=187	=187	=187
1C	1c	0r	0r	1g	1ee
2G	2B	.	.	[1g	2dd
2G	2B	.	.	.	2dd
=188	=188	=188	=188	=188	=188
2E	2c	2r	0r	2g]	2ee
2D	2d	2A	.	2f	2ff
2C	1e	2c	.	2e	2gg
[2c	.	2c	.	2c	2ee
=189	=189	=189	=189	=189	=189
4c]	0r	1d	0r	2G	2dd
8B	.	.	.	.	.
8A	.	.	.	.	.
2B	.	.	.	2g	2dd
2c	.	2c	.	2g	2ee
2A	.	2c	.	2f#	4dd
.	.	.	.	.	4cc
=190	=190	=190	=190	=190	=190
2.G	0r	2d	2r	2g	1b
.	.	2e	2B	2g	.
8F	.	.	.	.	.
8E	.	.	.	.	.
1D	.	1f	2d	2a	2r
.	.	.	2d	2a	2dd
=191	=191	=191	=191	=191	=191
2r	2r	0r	1e	2.g	2b
2C	2c	.	.	.	2cc
.	.	.	.	4g	.
2G	2c	.	2d	1g	2dd
2G	2B	.	2d	.	2g
=192	=192	=192	=192	=192	=192
2C	2c	0r	2e	1r	2g
2D	2A	.	2f	.	2dd
[1E	2G	.	1g	2r	4cc
.	.	.	.	.	4b
.	2B	.	.	2g	[2ee
=193	=193	=193	=193	=193	=193
2E]	2c	2r	0r	2e	2ee]
2F	2d	2d	.	2a	4dd
.	.	.	.	.	4cc
2G	1e	2d	.	2g	2b
2A	.	2c	.	2e	2a
=194	=194	=194	=194	=194	=194
1D	1d	2d	0r	2.f	2a
.	.	2B	.	.	2dd
.	.	.	.	4g	.
1F	1r	2A	.	2a	2cc
.	.	2c	.	2a	2cc
=195	=195	=195	=195	=195	=195
2D	0r	2d	2r	1.a	2ff
2C	.	2e	2e	.	2ee
2D	.	1f	2e	.	2a
2D	.	.	2d	2a	2dd
=196	=196	=196	=196	=196	=196
1A	0r	1e	2e	1a	4cc
.	.	.	.	.	4dd
.	.	.	2c	.	4ee
.	.	.	.	.	4ff
1G	.	1r	2B	2d	2.gg
.	.	.	2d	[2g	.
.	.	.	.	.	4ff
=197	=197	=197	=197	=197	=197
2c	0r	0r	2e	4g]	2ee
.	.	.	.	4a	.
2d	.	.	2f	4b	2dd
.	.	.	.	8a	.
.	.	.	.	8b	.
1c	.	.	1g	2cc	4ee
.	.	.	.	.	2ff
.	.	.	.	2cc	.
.	.	.	.	.	4ee
=198	=198	=198	=198	=198	=198
2r	2r	0r	1f	2a	1ff
2F	2A	.	.	2a	.
2G	2B	.	1r	2g	1r
2A	2c	.	.	2e	.
=199	=199	=199	=199	=199	=199
2D	2d	0r	0r	1f	1a
2F	2d	.	.	.	.
2G	2d	.	.	1e	2b
[2A	2c	.	.	.	2cc
=200	=200	=200	=200	=200	=200
2A]	1B	2r	0r	2f	2dd
2G	.	2B	.	2g	2dd
1F	1A	2c	.	1a	2ff
.	.	2d	.	.	2ff
=201	=201	=201	=201	=201	=201
1C	1c	2e	0r	2g	4ee
.	.	.	.	.	4dd
.	.	2e	.	2g	4cc
.	.	.	.	.	4b
1r	2c	2e	.	2a	2a
.	2B	2d	.	2b	[2g
=202	=202	=202	=202	=202	=202
0r	1A	1c	2r	2cc	4g]
.	.	.	.	.	8f#
.	.	.	.	.	8e
.	.	.	2c	2a	2f#
.	1G	1B	2d	2b	1g
.	.	.	2e	2b	.
=203	=203	=203	=203	=203	=203
0r	0r	1d	2f	4a	1a
.	.	.	.	4g	.
.	.	.	2f	4f	.
.	.	.	.	4e	.
.	.	2d	2f	2d	2r
.	.	2c	2e	2e	[2a
=204	=204	=204	=204	=204	=204
1r	1r	1B	1d	2f	2a]
.	.	.	.	4e	2g#
.	.	.	.	4d	.
2r	2r	1A	1c	1e	2.a
[2A	[2c	.	.	.	.
.	.	.	.	.	4b
=205	=205	=205	=205	=205	=205
2A]	2c]	0r	1e	1r	4cc
.	.	.	.	.	4dd
2G	2B	.	.	.	2.ee
2A	2c	.	2e	2r	.
.	.	.	.	.	4ff
2B	2d	.	2d	[2g	[2gg
=206	=206	=206	=206	=206	=206
2c	1e	1r	1c	2g]	2gg]
2C	.	.	.	2g	2cc
2.G	1d	2r	1B	1g	1dd
.	.	[2d	.	.	.
4F	.	.	.	.	.
=207	=207	=207	=207	=207	=207
1E	1e	2d]	0r	1e	1g
.	.	2c#	.	.	.
2D	2f	2d	.	1a	1r
2C#	2e	2e	.	.	.
=208	=208	=208	=208	=208	=208
4D	1d	1f	1r	[0a	0r
4E	.	.	.	.	.
4F	.	.	.	.	.
4G	.	.	.	.	.
1A	1c	1e	2r	.	.
.	.	.	[2e	.	.
=209	=209	=209	=209	=209	=209
1D	0r	1f	2e]	1a]	2r
.	.	.	2d	.	2dd
1r	.	2g	2e	2r	2b
.	.	2f	2f	[2a	[2dd
=210	=210	=210	=210	=210	=210
1r	0r	1e	1g	2a]	2dd]
.	.	.	.	2g	2cc#
2r	.	1d	1f	2a	1dd
2d	.	.	.	2b	.
=211	=211	=211	=211	=211	=211
2.c	0r	0r	1g	2cc	2ee
.	.	.	.	2cc	2gg
4B	.	.	.	.	.
4A	.	.	2a	2cc	2ff
4B	.	.	.	.	.
2c	.	.	2g	2cc	[2ee
=212	=212	=212	=212	=212	=212
1d	2r	0r	1f	1a	4ee]
.	.	.	.	.	8dd
.	.	.	.	.	8cc
.	1d	.	.	.	2dd
1A	.	.	1e	1a	1ee
.	2c	.	.	.	.
=213	=213	=213	=213	=213	=213
1D	1d	0r	0r	1f	2r
.	.	.	.	.	1dd
1F	1A	.	.	1a	.
.	.	.	.	.	2cc
=214	=214	=214	=214	=214	=214
2.C	2.c	2r	0r	[0g	2.ee
.	.	1e	.	.	.
4D	4c	.	.	.	4ff
4E	2c	.	.	.	2.gg
4F	.	.	.	.	.
2G	2B	2d	.	.	.
.	.	.	.	.	4ff
=215	=215	=215	=215	=215	=215
1C	1c	1e	0r	1g]	4ee
.	.	.	.	.	4dd
.	.	.	.	.	2cc
1r	1G	1B	.	1g	[1dd
=216	=216	=216	=216	=216	=216
2.D	2A	2.d	2r	2f	1dd]
.	2B-	.	1f	2d	.
4D	.	4d	.	.	.
2D	1A	2d	.	[1a	2r
2A	.	2c	2e	.	2ee
=217	=217	=217	=217	=217	=217
2.D	1A	1d	1f	2a]	2dd
.	.	.	.	2a	1ff
4E	.	.	.	.	.
4F	1r	1A	1c	1a	.
4G	.	.	.	.	.
2A	.	.	.	.	2ee
=218	=218	=218	=218	=218	=218
1E	0r	2B	2.e	[0g	2gg
.	.	2c	.	.	4g
.	.	.	4e	.	4a
2.G	.	1B	2e	.	4b
.	.	.	.	.	4cc
.	.	.	2d	.	2dd
4F	.	.	.	.	.
=219	=219	=219	=219	=219	=219
1.E	0r	1B	1e	1g]	1.gg
.	.	1r	1B	[1g	.
2D	.	.	.	.	2ff
=220	=220	=220	=220	=220	=220
2C	1r	0r	2c	2g]	2ee
2BB	.	.	2d	2g	2dd
1C	1G	.	1c	4e	1ee
.	.	.	.	4c	.
.	.	.	.	[2g	.
=221	=221	=221	=221	=221	=221
1r	1A	0r	1c	4g]	2r
.	.	.	.	8f#	.
.	.	.	.	8e	.
.	.	.	.	2f#	2cc
1C	2G	.	1r	2g	[1ee
.	2c	.	.	2e	.
=222	=222	=222	=222	=222	=222
1E	2B	1r	0r	1g	1ee]
.	2c	.	.	.	.
1D	2.d	1A	.	1f#	2a
.	.	.	.	.	2dd
.	4d	.	.	.	.
=223	=223	=223	=223	=223	=223
1G	1d	1B	0r	2r	2.b
.	.	.	.	2g	.
.	.	.	.	.	4cc
2F#	1r	2A	.	2a	2dd
2G	.	2d	.	2b	2b
=224	=224	=224	=224	=224	=224
2A	0r	2c	1r	2cc	1a
2F	.	2d	.	2a	.
1E	.	2.e	1B	1g	2r
.	.	.	.	.	2b
.	.	4e	.	.	.
=225	=225	=225	=225	=225	=225
1A	0r	1e	1c	2r	4a
.	.	.	.	.	4b
.	.	.	.	1a	4cc
.	.	.	.	.	4dd
1E	.	1r	2B	.	1ee
.	.	.	2e	2g	.
=226	=226	=226	=226	=226	=226
2F	0r	0r	2d	2f	0a
2C	.	.	2e	2e	.
2D	.	.	2.f	2d	.
2D	.	.	.	2d	.
.	.	.	4f	.	.
=227	=227	=227	=227	=227	=227
1F	1A	0r	1f	2.c	2r
.	.	.	.	.	2a
.	.	.	.	4d	.
1E	2.B	.	1r	2e	2a
.	.	.	.	2e	2g
.	4c	.	.	.	.
=228	=228	=228	=228	=228	=228
2D	2d	0r	0r	1A	2f
2C	1e	.	.	.	2e
1F	.	.	.	2r	1a
.	2d	.	.	[2a	.
=229	=229	=229	=229	=229	=229
1E	2e	1B	0r	2a]	2r
.	2.e	.	.	2g#	2ee
2.A	.	2.c	.	2a	1ee
.	4d	.	.	.	.
.	[2c	.	.	2a	.
4B	.	4d	.	.	.
=230	=230	=230	=230	=230	=230
2c	4c]	2e	0r	2g	2cc
.	4B	.	.	.	.
2F	2A	1f	.	2f	2cc
1C	1G	.	.	2g	2cc
.	.	2e	.	2cc	2g
=231	=231	=231	=231	=231	=231
2.F	2F	2f	1c	4cc	2a
.	.	.	.	4b	.
.	2.A	2.f	.	4a	2a
4E	.	.	.	4g	.
[1D	.	.	2.d	2.f	1a
.	4G	4e	.	.	.
.	4F	[2d	.	.	.
.	4E	.	4e	4g	.
=232	=232	=232	=232	=232	=232
0D]	1D	4d]	2f#	2a	0dd
.	.	4c	.	.	.
.	.	2B	1g	2g	.
.	1d	1A	.	1a	.
.	.	.	2f#	.	.
=233	=233	=233	=233	=233	=233
0G	0B	0G	0g	0b	0dd
==	==	==	==	==	==
*-	*-	*-	*-	*-	*-
!!!CDT: 1525/^1526/-1594/2/2
!!!OCY: Italia
!!!AGN: Mass (Canonic)
!!!AST: renaissance, vocal
!!!ASW: Motet (unidentified)
!!!PWK: Masses, Book 8
!!!RNB: Cadence finals: C
!!!YOR: Le Opere Complete, v. 24, p. 157
!!!YOO: Rome, Italy: Fratelli Scalera
!!!END: 1992//
!!!EED: John Miller
!!!YEC: Copyright 2000, John Miller
!!!YEN: United States of America
!!!YEM: Rights to all derivative electronic formats reserved.
!!!YEM: Refer to licensing agreement for further details.
!!!YEM: This file must be accompanied by the licensing agreement.
!!!YEM: A copy of the licensing agreement may be found at http://www.music-cog.ohio-state.edu/HumdrumDatabases/Palestrina/license.txt
!!!EMD: converted to Humdrum by Bret Aarden
